assets/images/study/progressive-lens-design.svg

<svg xmlns="http://www.w3.org/2000/svg" width="700" height="500" aria-hidden="false" viewBox="0 0 700 500"><path fill="#f5f5f5" d="M0 0h700v500H0z"/><text x="350" y="40" font-family="Arial" font-size="24" font-size-adjust=".5" font-weight="bold" text-anchor="middle" text-rendering="optimizeLegibility">Progressive Lens Design</text><path fill="#fff" stroke="#333" stroke-width="2" d="M150 100q25-10 50-10h300q25 0 50 10 50 20 100 100 25 50 0 100-50 80-100 100-25 10-50 10H200q-25 0-50-10-50-20-100-100-25-50 0-100 50-80 100-100Z"/><path fill="#e6f2ff" fill-opacity=".7" stroke="#333" d="M150 100q25-10 50-10h300q25 0 50 10 50 20 100 100 10 20 10 30H40q0-10 10-30 50-80 100-100Z"/><text x="350" y="160" font-family="Arial" font-size="18" font-size-adjust=".5" font-weight="bold" text-anchor="middle" text-rendering="optimizeLegibility">Distance Vision</text><path fill="#ffe6cc" fill-opacity=".7" stroke="#333" d="M40 230h620q5 30 0 40H40q-5-10 0-40Z"/><text x="350" y="255" font-family="Arial" font-size="16" font-size-adjust=".5" font-weight="bold" text-anchor="middle" text-rendering="optimizeLegibility">Intermediate</text><path fill="#e6ffe6" fill-opacity=".7" stroke="#333" d="M40 270h620q5 10-10 30-50 80-100 100-25 10-50 10H200q-25 0-50-10-50-20-100-100-15-20-10-30Z"/><text x="350" y="340" font-family="Arial" font-size="18" font-size-adjust=".5" font-weight="bold" text-anchor="middle" text-rendering="optimizeLegibility">Reading Zone</text><path fill="#fcf" fill-opacity=".8" stroke="#333" d="M330 230h40l10 40h-60Z"/><text x="350" y="190" font-family="Arial" font-size="14" font-size-adjust=".5" text-anchor="middle" text-rendering="optimizeLegibility">Corridor</text><path stroke="#333" stroke-dasharray="3,3" d="M350 195v55"/><path fill="#fcc" fill-opacity=".5" stroke="#333" d="M150 100q-50 50-75 100t0 100 75 100h-50q-25-25-50-100-25-50 0-100 25-75 50-100Zm400 0q50 50 75 100t0 100-75 100h50q25-25 50-100 25-50 0-100-25-75-50-100Z"/><path stroke="#06c" stroke-dasharray="5,3" stroke-width="1.5" d="m100 160-60-40"/><text x="40" y="110" fill="#06c" font-family="Arial" font-size="14" font-size-adjust=".5" font-weight="bold" text-rendering="optimizeLegibility">Distance Zone</text><text x="40" y="130" fill="#06c" font-family="Arial" font-size="12" font-size-adjust=".5" text-rendering="optimizeLegibility">For far vision</text><path stroke="#f90" stroke-dasharray="5,3" stroke-width="1.5" d="M80 250H20"/><text x="20" y="240" fill="#f90" font-family="Arial" font-size="14" font-size-adjust=".5" font-weight="bold" text-anchor="end" text-rendering="optimizeLegibility">Intermediate</text><text x="20" y="260" fill="#f90" font-family="Arial" font-size="12" font-size-adjust=".5" text-anchor="end" text-rendering="optimizeLegibility">Computer distance</text><path stroke="#093" stroke-dasharray="5,3" stroke-width="1.5" d="m100 340-60 40"/><text x="40" y="390" fill="#093" font-family="Arial" font-size="14" font-size-adjust=".5" font-weight="bold" text-rendering="optimizeLegibility">Reading Zone</text><text x="40" y="410" fill="#093" font-family="Arial" font-size="12" font-size-adjust=".5" text-rendering="optimizeLegibility">Near vision</text><path stroke="#c00" stroke-dasharray="5,3" stroke-width="1.5" d="m120 300-60 30"/><text x="60" y="340" fill="#c00" font-family="Arial" font-size="14" font-size-adjust=".5" font-weight="bold" text-rendering="optimizeLegibility">Peripheral</text><text x="60" y="360" fill="#c00" font-family="Arial" font-size="12" font-size-adjust=".5" text-rendering="optimizeLegibility">Distortion</text><path stroke="#90c" stroke-dasharray="5,3" stroke-width="1.5" d="M420 250h80"/><text x="510" y="240" fill="#90c" font-family="Arial" font-size="14" font-size-adjust=".5" font-weight="bold" text-rendering="optimizeLegibility">Progression</text><text x="510" y="260" fill="#90c" font-family="Arial" font-size="12" font-size-adjust=".5" text-rendering="optimizeLegibility">Corridor</text><path stroke="#333" stroke-width="2" d="M345 180h10m-5-5v10"/><circle cx="350" cy="180" r="5" fill="none" stroke="#333"/><path stroke="#333" stroke-dasharray="5,3" stroke-width="1.5" d="m370 180 60-30"/><text x="440" y="140" fill="#333" font-family="Arial" font-size="14" font-size-adjust=".5" font-weight="bold" text-rendering="optimizeLegibility">Fitting Cross</text><text x="440" y="160" fill="#333" font-family="Arial" font-size="12" font-size-adjust=".5" text-rendering="optimizeLegibility">Pupil alignment point</text><rect width="200" height="150" x="450" y="300" fill="#fff" stroke="#333" rx="10" ry="10"/><text x="550" y="325" font-family="Arial" font-size="16" font-size-adjust=".5" font-weight="bold" text-anchor="middle" text-rendering="optimizeLegibility">Power Progression</text><path fill="#e6f2ff" stroke="#333" d="M470 340h20v20h-20z"/><text x="500" y="355" font-family="Arial" font-size="14" font-size-adjust=".5" text-rendering="optimizeLegibility">Distance Power</text><path fill="#ffe6cc" stroke="#333" d="M470 370h20v20h-20z"/><text x="500" y="385" font-family="Arial" font-size="14" font-size-adjust=".5" text-rendering="optimizeLegibility">Intermediate</text><path fill="#e6ffe6" stroke="#333" d="M470 400h20v20h-20z"/><text x="500" y="415" font-family="Arial" font-size="14" font-size-adjust=".5" text-rendering="optimizeLegibility">Reading (Add)</text><path fill="#fcc" stroke="#333" d="M470 430h20v20h-20z"/><text x="500" y="445" font-family="Arial" font-size="14" font-size-adjust=".5" text-rendering="optimizeLegibility">Distortion Zone</text></svg>

<svg width="700px" height="500px" viewBox="0 0 700 500" xmlns="http://www.w3.org/2000/svg">
  <!-- Background -->
  <rect x="0" y="0" width="700" height="500" fill="#f5f5f5"/>
  <text x="350" y="40" font-family="Arial" font-size="24" font-weight="bold" text-anchor="middle">Progressive Lens Design</text>
  
  <!-- Lens Outline -->
  <path d="M 150,100 Q 175,90 200,90 L 500,90 Q 525,90 550,100 Q 600,120 650,200 Q 675,250 650,300 Q 600,380 550,400 Q 525,410 500,410 L 200,410 Q 175,410 150,400 Q 100,380 50,300 Q 25,250 50,200 Q 100,120 150,100 Z" 
        fill="white" stroke="#333" stroke-width="2"/>
  
  <!-- Distance Zone -->
  <path d="M 150,100 Q 175,90 200,90 L 500,90 Q 525,90 550,100 Q 600,120 650,200 Q 660,220 660,230 L 40,230 Q 40,220 50,200 Q 100,120 150,100 Z" 
        fill="#e6f2ff" stroke="#333" stroke-width="1" fill-opacity="0.7"/>
  <text x="350" y="160" font-family="Arial" font-size="18" font-weight="bold" text-anchor="middle">Distance Vision</text>
  
  <!-- Intermediate Zone -->
  <path d="M 40,230 L 660,230 Q 665,260 660,270 L 40,270 Q 35,260 40,230 Z" 
        fill="#ffe6cc" stroke="#333" stroke-width="1" fill-opacity="0.7"/>
  <text x="350" y="255" font-family="Arial" font-size="16" font-weight="bold" text-anchor="middle">Intermediate</text>
  
  <!-- Reading Zone -->
  <path d="M 40,270 L 660,270 Q 665,280 650,300 Q 600,380 550,400 Q 525,410 500,410 L 200,410 Q 175,410 150,400 Q 100,380 50,300 Q 35,280 40,270 Z" 
        fill="#e6ffe6" stroke="#333" stroke-width="1" fill-opacity="0.7"/>
  <text x="350" y="340" font-family="Arial" font-size="18" font-weight="bold" text-anchor="middle">Reading Zone</text>
  
  <!-- Corridor -->
  <path d="M 330,230 L 370,230 L 380,270 L 320,270 Z" 
        fill="#ffccff" stroke="#333" stroke-width="1" fill-opacity="0.8"/>
  <text x="350" y="190" font-family="Arial" font-size="14" text-anchor="middle">Corridor</text>
  <line x1="350" y1="195" x2="350" y2="250" stroke="#333" stroke-width="1" stroke-dasharray="3,3"/>
  
  <!-- Peripheral Distortion Zones -->
  <path d="M 150,100 Q 100,150 75,200 Q 50,250 75,300 Q 100,350 150,400 L 100,400 Q 75,375 50,300 Q 25,250 50,200 Q 75,125 100,100 Z" 
        fill="#ffcccc" stroke="#333" stroke-width="1" fill-opacity="0.5"/>
  <path d="M 550,100 Q 600,150 625,200 Q 650,250 625,300 Q 600,350 550,400 L 600,400 Q 625,375 650,300 Q 675,250 650,200 Q 625,125 600,100 Z" 
        fill="#ffcccc" stroke="#333" stroke-width="1" fill-opacity="0.5"/>
  
  <!-- Annotations -->
  
  <!-- Distance Zone -->
  <line x1="100" y1="160" x2="40" y2="120" stroke="#0066cc" stroke-width="1.5" stroke-dasharray="5,3"/>
  <text x="40" y="110" font-family="Arial" font-size="14" font-weight="bold" fill="#0066cc">Distance Zone</text>
  <text x="40" y="130" font-family="Arial" font-size="12" fill="#0066cc">For far vision</text>
  
  <!-- Intermediate Zone -->
  <line x1="80" y1="250" x2="20" y2="250" stroke="#ff9900" stroke-width="1.5" stroke-dasharray="5,3"/>
  <text x="20" y="240" font-family="Arial" font-size="14" font-weight="bold" text-anchor="end" fill="#ff9900">Intermediate</text>
  <text x="20" y="260" font-family="Arial" font-size="12" text-anchor="end" fill="#ff9900">Computer distance</text>
  
  <!-- Reading Zone -->
  <line x1="100" y1="340" x2="40" y2="380" stroke="#009933" stroke-width="1.5" stroke-dasharray="5,3"/>
  <text x="40" y="390" font-family="Arial" font-size="14" font-weight="bold" fill="#009933">Reading Zone</text>
  <text x="40" y="410" font-family="Arial" font-size="12" fill="#009933">Near vision</text>
  
  <!-- Peripheral Distortion -->
  <line x1="120" y1="300" x2="60" y2="330" stroke="#cc0000" stroke-width="1.5" stroke-dasharray="5,3"/>
  <text x="60" y="340" font-family="Arial" font-size="14" font-weight="bold" fill="#cc0000">Peripheral</text>
  <text x="60" y="360" font-family="Arial" font-size="12" fill="#cc0000">Distortion</text>
  
  <!-- Corridor -->
  <line x1="420" y1="250" x2="500" y2="250" stroke="#9900cc" stroke-width="1.5" stroke-dasharray="5,3"/>
  <text x="510" y="240" font-family="Arial" font-size="14" font-weight="bold" fill="#9900cc">Progression</text>
  <text x="510" y="260" font-family="Arial" font-size="12" fill="#9900cc">Corridor</text>
  
  <!-- Fitting Cross -->
  <line x1="345" y1="180" x2="355" y2="180" stroke="#333" stroke-width="2"/>
  <line x1="350" y1="175" x2="350" y2="185" stroke="#333" stroke-width="2"/>
  <circle cx="350" cy="180" r="5" fill="none" stroke="#333" stroke-width="1"/>
  <line x1="370" y1="180" x2="430" y2="150" stroke="#333" stroke-width="1.5" stroke-dasharray="5,3"/>
  <text x="440" y="140" font-family="Arial" font-size="14" font-weight="bold" fill="#333">Fitting Cross</text>
  <text x="440" y="160" font-family="Arial" font-size="12" fill="#333">Pupil alignment point</text>
  
  <!-- Legend -->
  <rect x="450" y="300" width="200" height="150" rx="10" ry="10" fill="white" stroke="#333" stroke-width="1"/>
  <text x="550" y="325" font-family="Arial" font-size="16" font-weight="bold" text-anchor="middle">Power Progression</text>
  
  <!-- Distance Power -->
  <rect x="470" y="340" width="20" height="20" fill="#e6f2ff" stroke="#333" stroke-width="1"/>
  <text x="500" y="355" font-family="Arial" font-size="14" text-anchor="start">Distance Power</text>
  
  <!-- Intermediate Power -->
  <rect x="470" y="370" width="20" height="20" fill="#ffe6cc" stroke="#333" stroke-width="1"/>
  <text x="500" y="385" font-family="Arial" font-size="14" text-anchor="start">Intermediate</text>
  
  <!-- Reading Power (Add) -->
  <rect x="470" y="400" width="20" height="20" fill="#e6ffe6" stroke="#333" stroke-width="1"/>
  <text x="500" y="415" font-family="Arial" font-size="14" text-anchor="start">Reading (Add)</text>
  
  <!-- Distortion Zone -->
  <rect x="470" y="430" width="20" height="20" fill="#ffcccc" stroke="#333" stroke-width="1"/>
  <text x="500" y="445" font-family="Arial" font-size="14" text-anchor="start">Distortion Zone</text>
</svg>
